X:5922
T:Gan ainm
R:Reel
S:(Unknown fiddle)
H:
N:
D:Unknown - Milltown Fiddle Recital
Z:Adrian Scahill
M:4/4
L:1/8
K:D
D3F AFF2|BFF2 AFEF|D3F AFF2|BFF2 EGFE|\
D3F AFF2|BFF2 AFEF|DEDF AFF2|BFAF EFD2||\
f2df edBc|d3B ABde|fedf edBc|dBAF EFD2|\
f2df edBc|d3B ABde|fefe defe|dBAF EGFE||


